gba/art/logo.svg

<?xml version="1.0" encoding="utf-8"?>
<!-- Generator: Adobe Illustrator 16.0.3, SVG Export Plug-In . SVG Version: 6.00 Build 0)  -->
<!DOCTYPE svg PUBLIC "-//W3C//DTD SVG 1.1//EN" "http://www.w3.org/Graphics/SVG/1.1/DTD/svg11.dtd">
<svg version="1.1"
	 id="svg2" inkscape:version="0.44.1" sodipodi:version="0.32" sodipodi:docbase="C:\Documents and Settings\Matias\Desktop" sodipodi:docname="Game_Boy_Advance.svg" xmlns:dc="http://purl.org/dc/elements/1.1/" xmlns:rdf="http://www.w3.org/1999/02/22-rdf-syntax-ns#" xmlns:svg="http://www.w3.org/2000/svg" xmlns:sodipodi="http://sodipodi.sourceforge.net/DTD/sodipodi-0.dtd" xmlns:inkscape="http://www.inkscape.org/namespaces/inkscape" xmlns:cc="http://web.resource.org/cc/"
	 xmlns="http://www.w3.org/2000/svg" xmlns:xlink="http://www.w3.org/1999/xlink" x="0px" y="0px" width="566.929px"
	 height="66.041px" viewBox="0 0 566.929 66.041" enable-background="new 0 0 566.929 66.041" xml:space="preserve">
<sodipodi:namedview  height="206.5px" width="1772.6px" inkscape:window-x="-4" inkscape:window-y="-4" inkscape:current-layer="svg2" inkscape:pageshadow="2" inkscape:window-width="1440" inkscape:pageopacity="0.0" inkscape:window-height="844" objecttolerance="10.0" inkscape:cx="995.52531" borderopacity="1.0" inkscape:cy="283.81045" guidetolerance="10.0" pagecolor="#ffffff" inkscape:zoom="0.32" bordercolor="#666666" gridtolerance="10.0" id="base">
	</sodipodi:namedview>
<path id="path10" fill="#1F00CC" d="M296.042,8.236l4.352-6.971h-66.25c-5.084,0.076-9.82,1.502-14.135,4.274l-5.084,3.736
	c-2.234-2.696-4.43-4.584-6.588-5.854c-2.695-1.502-5.699-2.156-9.127-2.156H87.009l-3.66,11.169L81.541,1.266H57.003l-0.885,2.079
	l-2.311-0.809c-12.943-4.43-25.383-3.081-37.131,4.198c-5.971,3.813-10.477,8.59-13.25,14.443c-2.85,5.855-3.814,12.364-3.158,19.76
	c0.461,4.43,2.002,8.551,4.699,12.287c2.695,3.736,6.123,6.74,10.398,8.897c6.201,3.235,12.941,4.198,19.99,3.081h21.84
	l5.469-12.133l2.004,12.133l131.266-0.153c2.852,0,5.701-0.694,8.59-1.964c2.85-1.271,5.314-3.082,7.549-5.316
	c3.66,3.891,8.012,6.51,13.096,7.55c6.895,1.656,13.559,0.462,19.836-3.505l0.811-0.617l-0.617,3.968h26.73l0.656-4.622
	c1.578-0.23,2.85-1.039,3.967-2.389h72.682c11.17,0,19.373-2.85,24.381-8.589l5.393,8.589h77.768V47.217l13.98,10.938h96.102V8.313
	H462.744v10.784L448.955,8.313h-55.387l-6.818,12.942l-7.549-13.02H296.042L296.042,8.236z"/>
<path id="path12" fill="#FFFFFF" d="M313.027,16.557h-8.318l-19.605,33.009h23.342v-7.318h-9.514l9.514-17.063l13.789,24.42h10.631
	v-0.076h16.6c14.367,0,21.57-5.547,21.57-16.523c0-1.888-0.23-3.66-0.732-5.316l13.25,21.84h6.355l19.066-32.932h-10.092
	L386.98,38.164l-12.557-21.568h-10.861l3.004,4.93c-3.504-3.313-8.551-4.93-15.137-4.93h-21.84V43.98L313.027,16.557L313.027,16.557
	z M338.988,24.028h12.52c6.508,0,9.82,2.851,9.82,8.551c0,3.429-1.039,5.932-3.004,7.241c-1.887,1.348-5.469,2.003-10.477,2.003
	h-8.82V24.028H338.988z"/>
<polygon id="polygon14" fill="#FFFFFF" points="423.033,16.557 414.675,16.557 395.146,49.565 405.007,49.565 405.007,49.488 
	418.488,49.488 418.488,42.131 409.052,42.131 418.412,25.146 432.201,49.565 442.947,49.565 442.947,49.488 448.416,49.488 
	448.416,29.575 473.337,49.488 479.808,49.488 479.808,16.557 471.179,16.557 471.179,36.238 446.027,16.557 439.595,16.557 
	439.595,43.941 "/>
<path id="path16" fill="#FFFFFF" d="M484.738,18.404c-1.348,1.195-2.041,3.352-2.041,6.434v16.33c0,3.159,0.693,5.316,2.002,6.51
	c1.271,1.195,3.582,1.811,6.973,1.811h19.373c3.352,0,5.777-0.616,7.049-1.811c1.271-1.193,2.004-3.351,2.004-6.51v-4.583
	l-9.514-0.154v5.085h-18.412V24.221h18.412v4.507h9.514v-3.89c0-3.236-0.732-5.393-2.004-6.434
	c-1.271-1.271-3.504-1.887-7.049-1.887h-19.373C488.32,16.557,486.009,17.135,484.738,18.404L484.738,18.404z"/>
<polygon id="polygon18" fill="#FFFFFF" points="532.769,28.766 532.769,24.028 558.458,24.028 558.458,16.557 523.255,16.557 
	523.255,49.488 558.882,49.488 558.882,41.862 532.769,41.862 532.769,36.008 547.83,36.008 547.83,28.766 "/>
<path id="path20" fill="#FFFFFF" d="M50.841,10.354C40.519,6.619,30.542,7.813,20.99,13.706C11.554,19.483,7.433,28.304,8.55,39.82
	c0.307,3.352,1.578,6.433,3.736,9.129c2.156,2.696,4.93,4.621,8.242,6.123c3.35,1.503,6.895,2.08,10.631,1.888
	c4.121-0.231,7.857-1.425,11.516-3.429l0.385-0.23l-1.424,3.158H51.65l6.434-13.981h11.092l2.465,13.981h16.41l8.396-26.191
	l5.393,26.191h6.508l12.557-29.041l1.271,29.041h9.592l-1.965-46.914H118.13l-10.938,25.652l-4.699-25.652h-9.592L80.539,47.484
	L74.183,9.545H62.359L44.255,50.489l2.619-17.141H29.001l-1.348,8.821h7.473l-0.732,4.698l-7.857,0.54
	c-3.158-0.809-5.393-2.465-6.895-5.085c-1.271-2.465-1.887-5.007-1.578-7.856c0.385-3.968,2.311-7.55,5.969-10.785
	c3.313-2.928,7.551-4.584,12.635-5.238c4.854-0.732,9.129-0.231,12.711,1.348L50.841,10.354L50.841,10.354z M67.751,33.311H61.82
	l4.121-9.051L67.751,33.311z"/>
<polygon id="polygon22" fill="#FFFFFF" points="166.779,9.508 140.085,9.508 132.576,56.46 159.46,56.46 161.193,46.484 
	144.246,46.484 145.593,38.087 160.269,38.087 161.847,27.996 147.019,27.996 148.291,19.6 165.199,19.6 "/>
<polygon id="polygon24" fill="#FFFFFF" points="284.949,9.508 273.74,9.508 264.15,24.875 258.179,9.508 247.087,9.508 
	258.564,34.273 254.945,56.46 264.689,56.46 267.617,36.894 "/>
<path id="path26" fill="#FFFFFF" d="M237.88,9.97c-5.469-1.271-10.477,0-15.33,3.736c-4.852,3.582-8.012,8.743-9.668,15.253
	c-1.424,6.432-0.73,12.518,1.889,17.871c2.773,5.547,6.74,8.898,12.209,10.092c5.393,1.271,10.4,0,15.254-3.659
	c4.854-3.736,8.088-8.897,9.59-15.407c1.502-6.432,0.811-12.44-1.887-17.871C247.24,14.515,243.197,11.164,237.88,9.97L237.88,9.97z
	 M237.072,19.329c2.619,1.04,4.275,3.429,5.162,6.972c0.885,3.582,0.693,7.318-0.617,11.285c-1.271,3.891-3.35,6.818-6.047,8.667
	c-2.773,2.003-5.393,2.388-7.857,1.271c-2.619-1.04-4.352-3.429-5.238-6.972c-0.963-3.659-0.617-7.396,0.654-11.285
	c1.271-3.813,3.352-6.818,6.047-8.821C231.833,18.559,234.531,18.135,237.072,19.329L237.072,19.329z"/>
<path id="path28" fill="#FFFFFF" d="M205.025,11.626c-1.887-1.194-3.736-1.81-5.545-1.81h-17.949l-7.396,46.644h21.57
	c2.311,0,4.699-0.731,7.203-2.233c2.465-1.503,4.352-3.352,5.854-5.624c1.58-2.618,2.156-5.161,1.889-7.856
	c-0.309-2.928-1.889-5.701-4.623-8.32c5.469-5.623,6.74-10.939,3.891-16.023C208.685,14.515,207.144,12.896,205.025,11.626z
	 M188.347,28.381l1.502-8.666h6.279c1.58,0,2.773,0.461,3.582,1.348c0.693,0.809,0.963,1.811,0.809,3.004
	c-0.154,1.195-0.73,2.157-1.656,3.005c-1.039,0.886-2.311,1.349-3.813,1.349h-6.703l10.861,11.092
	c0.887,0.887,1.35,2.042,1.271,3.313c-0.076,1.271-0.693,2.312-1.811,3.236c-1.115,0.885-2.695,1.425-4.852,1.425h-8.475
	l1.502-9.437h8.088c1.811,0,3.236,0.539,4.275,1.502L188.347,28.381L188.347,28.381z"/>
<path id="path30" fill="#FFFFFF" d="M276.437,52.262c0-1.349-0.539-2.389-1.35-3.275c-0.885-0.885-2.002-1.424-3.311-1.424
	c-1.271,0-2.389,0.539-3.275,1.424c-0.885,0.887-1.348,1.965-1.348,3.275c0,1.271,0.463,2.311,1.348,3.234
	c0.887,0.887,2.004,1.426,3.275,1.426c1.27,0,2.387-0.539,3.311-1.426C275.898,54.572,276.437,53.533,276.437,52.262z
	 M274.548,49.488c0.693,0.693,1.117,1.656,1.117,2.773c0,1.04-0.461,1.965-1.117,2.773c-0.654,0.654-1.656,1.04-2.771,1.04
	c-1.117,0-2.08-0.386-2.773-1.04c-0.811-0.809-1.195-1.732-1.195-2.773c0-1.117,0.387-2.08,1.195-2.773
	c0.654-0.809,1.656-1.194,2.773-1.194C272.931,48.294,273.894,48.641,274.548,49.488z"/>
<path id="path32" fill="#FFFFFF" d="M273.433,49.873l-1.271-0.308h-2.234v5.238h0.732v-2.388h1.039l1.426,2.388h0.809l-1.58-2.388
	c1.041,0,1.656-0.462,1.656-1.502C274.048,50.451,273.894,50.027,273.433,49.873z M273.279,50.914c0,0.616-0.617,0.885-1.734,0.885
	h-0.885v-1.656h1.424C272.931,50.143,273.279,50.451,273.279,50.914L273.279,50.914z"/>
</svg>

<?xml version="1.0" encoding="UTF-8" standalone="no"?>
<!DOCTYPE svg PUBLIC "-//W3C//DTD SVG 1.1//EN" "http://www.w3.org/Graphics/SVG/1.1/DTD/svg11.dtd">
<svg width="100%" height="100%" viewBox="0 0 569 69" version="1.1" xmlns="http://www.w3.org/2000/svg" xmlns:xlink="http://www.w3.org/1999/xlink" xml:space="preserve" xmlns:serif="http://www.serif.com/" style="fill-rule:evenodd;clip-rule:evenodd;stroke-linejoin:round;stroke-miterlimit:2;">
    <g id="Artboard1" transform="matrix(1.0021,0,0,1.0195,0.429977,0.512285)">
        <rect x="-0.429" y="-0.502" width="567.787" height="67.045" style="fill:none;"/>
        <g id="path10" transform="matrix(0.997902,0,0,0.980871,0.568827,0.478386)">
            <path d="M296.042,8.236L300.394,1.265L234.144,1.265C229.06,1.341 224.324,2.767 220.009,5.539L214.925,9.275C212.691,6.579 210.495,4.691 208.337,3.421C205.642,1.919 202.638,1.265 199.21,1.265L87.009,1.265L83.349,12.434L81.541,1.266L57.003,1.266L56.118,3.345L53.807,2.536C40.864,-1.894 28.424,-0.545 16.676,6.734C10.705,10.547 6.199,15.324 3.426,21.177C0.576,27.032 -0.388,33.541 0.268,40.937C0.729,45.367 2.27,49.488 4.967,53.224C7.662,56.96 11.09,59.964 15.365,62.121C21.566,65.356 28.306,66.319 35.355,65.202L57.195,65.202L62.664,53.069L64.668,65.202L195.934,65.049C198.786,65.049 201.635,64.355 204.524,63.085C207.374,61.814 209.838,60.003 212.073,57.769C215.733,61.66 220.085,64.279 225.169,65.319C232.064,66.975 238.728,65.781 245.005,61.814L245.816,61.197L245.199,65.165L271.929,65.165L272.585,60.543C274.163,60.313 275.435,59.504 276.552,58.154L349.234,58.154C360.404,58.154 368.607,55.304 373.615,49.565L379.008,58.154L456.776,58.154L456.776,47.217L470.756,58.155L566.858,58.155L566.858,8.313L462.744,8.313L462.744,19.097L448.955,8.313L393.568,8.313L386.75,21.255L379.201,8.235L296.042,8.235L296.042,8.236Z" style="fill:rgb(31,0,204);fill-rule:nonzero;stroke:rgb(102,102,102);stroke-width:1px;"/>
        </g>
        <g id="path12" transform="matrix(0.997902,0,0,0.980871,0.568827,0.478386)">
            <path d="M313.027,16.557L304.709,16.557L285.104,49.566L308.446,49.566L308.446,42.248L298.932,42.248L308.446,25.185L322.235,49.605L332.866,49.605L332.866,49.529L349.466,49.529C363.833,49.529 371.036,43.982 371.036,33.006C371.036,31.118 370.806,29.346 370.304,27.69L383.554,49.53L389.909,49.53L408.975,16.598L398.883,16.598L386.98,38.164L374.423,16.596L363.562,16.596L366.566,21.526C363.062,18.213 358.015,16.596 351.429,16.596L329.589,16.596L329.589,43.98L313.027,16.557ZM338.988,24.028L351.508,24.028C358.016,24.028 361.328,26.879 361.328,32.579C361.328,36.008 360.289,38.511 358.324,39.82C356.437,41.168 352.855,41.823 347.847,41.823L339.027,41.823L339.027,24.028L338.988,24.028Z" style="fill:white;fill-rule:nonzero;"/>
        </g>
        <g id="polygon14" transform="matrix(0.997902,0,0,0.980871,0.568827,0.478386)">
            <path d="M423.033,16.557L414.675,16.557L395.146,49.565L405.007,49.565L405.007,49.488L418.488,49.488L418.488,42.131L409.052,42.131L418.412,25.146L432.201,49.565L442.947,49.565L442.947,49.488L448.416,49.488L448.416,29.575L473.337,49.488L479.808,49.488L479.808,16.557L471.179,16.557L471.179,36.238L446.027,16.557L439.595,16.557L439.595,43.941L423.033,16.557Z" style="fill:white;fill-rule:nonzero;"/>
        </g>
        <g id="path16" transform="matrix(0.997902,0,0,0.980871,0.568827,0.478386)">
            <path d="M484.738,18.404C483.39,19.599 482.697,21.756 482.697,24.838L482.697,41.168C482.697,44.327 483.39,46.484 484.699,47.678C485.97,48.873 488.281,49.489 491.672,49.489L511.045,49.489C514.397,49.489 516.822,48.873 518.094,47.678C519.365,46.485 520.098,44.327 520.098,41.168L520.098,36.585L510.584,36.431L510.584,41.516L492.172,41.516L492.172,24.221L510.584,24.221L510.584,28.728L520.098,28.728L520.098,24.838C520.098,21.602 519.366,19.445 518.094,18.404C516.823,17.133 514.59,16.517 511.045,16.517L491.672,16.517C488.32,16.557 486.009,17.135 484.738,18.404Z" style="fill:white;fill-rule:nonzero;"/>
        </g>
        <g id="polygon18" transform="matrix(0.997902,0,0,0.980871,0.568827,0.478386)">
            <path d="M532.769,28.766L532.769,24.028L558.458,24.028L558.458,16.557L523.255,16.557L523.255,49.488L558.882,49.488L558.882,41.862L532.769,41.862L532.769,36.008L547.83,36.008L547.83,28.766L532.769,28.766Z" style="fill:white;fill-rule:nonzero;"/>
        </g>
        <g id="path20" transform="matrix(0.997902,0,0,0.980871,0.568827,0.478386)">
            <path d="M50.841,10.354C40.519,6.619 30.542,7.813 20.99,13.706C11.554,19.483 7.433,28.304 8.55,39.82C8.857,43.172 10.128,46.253 12.286,48.949C14.442,51.645 17.216,53.57 20.528,55.072C23.878,56.575 27.423,57.152 31.159,56.96C35.28,56.729 39.016,55.535 42.675,53.531L43.06,53.301L41.636,56.459L51.65,56.459L58.084,42.478L69.176,42.478L71.641,56.459L88.051,56.459L96.447,30.268L101.84,56.459L108.348,56.459L120.905,27.418L122.176,56.459L131.768,56.459L129.803,9.545L118.13,9.545L107.192,35.197L102.493,9.545L92.901,9.545L80.539,47.484L74.183,9.545L62.359,9.545L44.255,50.489L46.874,33.348L29.001,33.348L27.653,42.169L35.126,42.169L34.394,46.867L26.537,47.407C23.379,46.598 21.144,44.942 19.642,42.322C18.371,39.857 17.755,37.315 18.064,34.466C18.449,30.498 20.375,26.916 24.033,23.681C27.346,20.753 31.584,19.097 36.668,18.443C41.522,17.711 45.797,18.212 49.379,19.791L50.841,10.354ZM67.751,33.311L61.82,33.311L65.941,24.26L67.751,33.311Z" style="fill:white;fill-rule:nonzero;"/>
        </g>
        <g id="polygon22" transform="matrix(0.997902,0,0,0.980871,0.568827,0.478386)">
            <path d="M166.779,9.508L140.085,9.508L132.576,56.46L159.46,56.46L161.193,46.484L144.246,46.484L145.593,38.087L160.269,38.087L161.847,27.996L147.019,27.996L148.291,19.6L165.199,19.6L166.779,9.508Z" style="fill:white;fill-rule:nonzero;"/>
        </g>
        <g id="polygon24" transform="matrix(0.997902,0,0,0.980871,0.568827,0.478386)">
            <path d="M284.949,9.508L273.74,9.508L264.15,24.875L258.179,9.508L247.087,9.508L258.564,34.273L254.945,56.46L264.689,56.46L267.617,36.894L284.949,9.508Z" style="fill:white;fill-rule:nonzero;"/>
        </g>
        <g id="path26" transform="matrix(0.997902,0,0,0.980871,0.568827,0.478386)">
            <path d="M237.88,9.97C232.411,8.699 227.403,9.97 222.55,13.706C217.698,17.288 214.538,22.449 212.882,28.959C211.458,35.391 212.152,41.477 214.771,46.83C217.544,52.377 221.511,55.728 226.98,56.922C232.373,58.193 237.38,56.922 242.234,53.263C247.088,49.527 250.322,44.366 251.824,37.856C253.326,31.424 252.635,25.416 249.937,19.985C247.24,14.515 243.197,11.164 237.88,9.97ZM237.072,19.329C239.691,20.369 241.347,22.758 242.234,26.301C243.119,29.883 242.927,33.619 241.617,37.586C240.346,41.477 238.267,44.404 235.57,46.253C232.797,48.256 230.177,48.641 227.713,47.524C225.094,46.484 223.361,44.095 222.475,40.552C221.512,36.893 221.858,33.156 223.129,29.267C224.4,25.454 226.481,22.449 229.176,20.446C231.833,18.559 234.531,18.135 237.072,19.329Z" style="fill:white;fill-rule:nonzero;"/>
        </g>
        <g id="path28" transform="matrix(0.997902,0,0,0.980871,0.568827,0.478386)">
            <path d="M205.025,11.626C203.138,10.432 201.289,9.816 199.48,9.816L181.531,9.816L174.135,56.46L195.705,56.46C198.016,56.46 200.404,55.729 202.908,54.227C205.373,52.724 207.26,50.875 208.762,48.603C210.342,45.985 210.918,43.442 210.651,40.747C210.342,37.819 208.762,35.046 206.028,32.427C211.497,26.804 212.768,21.488 209.919,16.404C208.685,14.515 207.144,12.896 205.025,11.626ZM188.347,28.381L189.849,19.715L196.128,19.715C197.708,19.715 198.901,20.176 199.71,21.063C200.403,21.872 200.673,22.874 200.519,24.067C200.365,25.262 199.789,26.224 198.863,27.072C197.824,27.958 196.552,28.421 195.05,28.421L188.347,28.421L199.208,39.513C200.095,40.4 200.558,41.555 200.479,42.826C200.403,44.097 199.786,45.138 198.668,46.062C197.553,46.947 195.973,47.487 193.816,47.487L185.341,47.487L186.843,38.05L194.931,38.05C196.742,38.05 198.167,38.589 199.206,39.552L188.347,28.381Z" style="fill:white;fill-rule:nonzero;"/>
        </g>
        <g id="path30" transform="matrix(0.997902,0,0,0.980871,0.568827,0.478386)">
            <path d="M276.437,52.262C276.437,50.913 275.898,49.873 275.087,48.987C274.202,48.102 273.085,47.563 271.776,47.563C270.505,47.563 269.387,48.102 268.501,48.987C267.616,49.874 267.153,50.952 267.153,52.262C267.153,53.533 267.616,54.573 268.501,55.496C269.388,56.383 270.505,56.922 271.776,56.922C273.046,56.922 274.163,56.383 275.087,55.496C275.898,54.572 276.437,53.533 276.437,52.262ZM274.548,49.488C275.241,50.181 275.665,51.144 275.665,52.261C275.665,53.301 275.204,54.226 274.548,55.034C273.894,55.688 272.892,56.074 271.777,56.074C270.66,56.074 269.697,55.688 269.004,55.034C268.193,54.225 267.809,53.302 267.809,52.261C267.809,51.144 268.196,50.181 269.004,49.488C269.658,48.679 270.66,48.294 271.777,48.294C272.931,48.294 273.894,48.641 274.548,49.488Z" style="fill:white;fill-rule:nonzero;"/>
        </g>
        <g id="path32" transform="matrix(0.997902,0,0,0.980871,0.568827,0.478386)">
            <path d="M273.433,49.873L272.162,49.565L269.928,49.565L269.928,54.803L270.66,54.803L270.66,52.415L271.699,52.415L273.125,54.803L273.934,54.803L272.354,52.415C273.395,52.415 274.01,51.953 274.01,50.913C274.048,50.451 273.894,50.027 273.433,49.873ZM273.279,50.914C273.279,51.53 272.662,51.799 271.545,51.799L270.66,51.799L270.66,50.143L272.084,50.143C272.931,50.143 273.279,50.451 273.279,50.914Z" style="fill:white;fill-rule:nonzero;"/>
        </g>
    </g>
</svg>
